X:9
T:Ca Ira. Tho24CDs1792.09
M:2/4
L:1/16
Q:1/4=100
C:"81"
B:Thompson 24 CDs 1792
Z:Village Music Project, Chris Partington, 1999 & 2017
W:Hands 6 quite around .| the same back again :| lead down the middle and up
W:again,& cast off Allemande & right and left :|.
K:G
G2GA G2GA|G2GAG4|(GABc) (dB)(ed)|(dc)(cB) ~B2A2|
G2GA G2GA|G2GAG4|(GABc) (dB)(ec)|B2A2!fine!G4:|
B2(dB) (cB)(AG)|F2AF G[DB][B,d][G,g]|B2(dB) (cB)(AG)|\
GABc d4|
d2de d2de|d2ded4|(defg) (af)(ba)|(ag)(gf) f2e2|
d2de d2de|d2ded4|(defg) afba|f2e2 (3d2e2c2!D.C.! (3B2c2A2|]

